;FLAVOR:UltiGCode
;TIME:2821
;MATERIAL:5374
;MATERIAL2:0
;NOZZLE_DIAMETER:0.4
;MINX:72.028
;MINY:82.527
;MINZ:0.27
;MAXX:150.972
;MAXY:140.479
;MAXZ:5.87
;Generated with Cura_SteamEngine 4.4.0
M82 ;absolute extrusion mode

G92 E0
G92 E0
G10
;LAYER_COUNT:29
;LAYER:0
M107
G0 F4320 X77.512 Y87.999 Z0.27
;TYPE:SKIRT
G11
G1 F1800 X78.134 Y87.507 E0.07494
G1 X78.64 Y87.175 E0.13214
G1 X78.871 Y87.036 E0.15761
G1 X79.57 Y86.662 E0.23253
G1 X79.725 Y86.598 E0.24838
G1 X79.892 Y86.434 E0.27049
G1 X80.349 Y86.057 E0.32648
G1 X80.547 Y85.906 E0.35001
G1 X81.201 Y85.457 E0.42498
G1 X81.897 Y85.077 E0.49991
G1 X82.67 Y84.753 E0.57912
G1 X83.218 Y84.557 E0.63412
G1 X83.978 Y84.328 E0.70913
G1 X84.756 Y84.176 E0.78404
G1 X85.547 Y84.104 E0.8591
G1 X85.792 Y84.106 E0.88225
G1 X85.814 Y84.097 E0.8845
G1 X86.138 Y83.981 E0.91702
G1 X86.897 Y83.751 E0.99196
G1 X87.676 Y83.599 E1.06697
G1 X88.466 Y83.527 E1.14193
G1 X89.169 Y83.529 E1.20837
G1 X89.753 Y83.557 E1.26362
G1 X90.543 Y83.635 E1.33864
G1 X91.321 Y83.792 E1.41364
G1 X92.079 Y84.026 E1.4886
G1 X92.274 Y84.109 E1.50863
G1 X92.541 Y84.111 E1.53386
G1 X93.513 Y84.229 E1.62639
G1 X93.74 Y84.271 E1.64821
G1 X94.512 Y84.455 E1.72321
G1 X95.261 Y84.715 E1.79813
G1 X95.678 Y84.898 E1.84116
G1 X96.189 Y85.14 E1.89459
G1 X96.888 Y85.515 E1.96956
G1 X97.545 Y85.959 E2.04449
G1 X98.155 Y86.467 E2.11951
G1 X98.295 Y86.61 E2.13842
G1 X98.651 Y86.767 E2.17519
G1 X99.291 Y87.128 E2.24463
G1 X99.476 Y87.244 E2.26526
G1 X100.113 Y87.689 E2.33869
G1 X100.364 Y87.491 E2.3689
G1 X100.976 Y87.097 E2.43768
G1 X101.197 Y86.969 E2.46182
G1 X101.903 Y86.607 E2.5368
G1 X101.93 Y86.597 E2.53952
G1 X101.977 Y86.548 E2.54593
G1 X102.627 Y86.008 E2.62579
G1 X102.846 Y85.845 E2.65159
G1 X103.506 Y85.404 E2.7266
G1 X104.206 Y85.031 E2.80155
G1 X104.913 Y84.741 E2.87377
G1 X105.448 Y84.551 E2.92742
G1 X106.208 Y84.324 E3.00237
G1 X106.987 Y84.174 E3.07734
G1 X107.777 Y84.103 E3.1523
G1 X108.006 Y84.106 E3.17394
G1 X108.026 Y84.097 E3.17601
G1 X108.35 Y83.981 E3.20853
G1 X109.109 Y83.751 E3.28348
G1 X109.888 Y83.599 E3.35848
G1 X110.678 Y83.527 E3.43345
G1 X111.381 Y83.529 E3.49988
G1 X111.965 Y83.557 E3.55513
G1 X112.755 Y83.635 E3.63015
G1 X113.533 Y83.792 E3.70516
G1 X114.291 Y84.026 E3.78012
G1 X114.486 Y84.109 E3.80015
G1 X114.753 Y84.111 E3.82538
G1 X115.725 Y84.229 E3.91791
G1 X115.952 Y84.271 E3.93973
G1 X116.724 Y84.455 E4.01472
G1 X117.473 Y84.715 E4.08965
G1 X117.89 Y84.898 E4.13268
G1 X118.401 Y85.14 E4.18611
G1 X119.1 Y85.515 E4.26107
G1 X119.757 Y85.959 E4.33601
G1 X120.367 Y86.467 E4.41102
G1 X120.507 Y86.61 E4.42994
G1 X120.862 Y86.766 E4.46658
G1 X121.503 Y87.128 E4.53615
G1 X121.688 Y87.244 E4.55678
G1 X122.019 Y87.475 E4.59492
G1 X122.529 Y86.983 E4.66189
G1 X123.152 Y86.491 E4.73691
G1 X123.751 Y86.105 E4.80425
G1 X123.971 Y85.977 E4.8283
G1 X124.676 Y85.613 E4.90328
G1 X124.732 Y85.591 E4.90897
G1 X124.892 Y85.434 E4.93015
G1 X125.349 Y85.057 E4.98614
G1 X125.547 Y84.906 E5.00967
G1 X126.201 Y84.457 E5.08463
G1 X126.897 Y84.077 E5.15957
G1 X127.67 Y83.753 E5.23878
G1 X128.218 Y83.557 E5.29377
G1 X128.978 Y83.328 E5.36878
G1 X129.756 Y83.176 E5.44369
G1 X130.547 Y83.104 E5.51875
G1 X130.792 Y83.106 E5.54191
G1 X130.814 Y83.097 E5.54415
G1 X131.138 Y82.981 E5.57667
G1 X131.897 Y82.751 E5.65162
G1 X132.676 Y82.599 E5.72662
G1 X133.466 Y82.527 E5.80159
G1 X134.169 Y82.529 E5.86802
G1 X134.753 Y82.557 E5.92327
G1 X135.543 Y82.635 E5.99829
G1 X136.321 Y82.792 E6.07329
G1 X137.079 Y83.026 E6.14826
G1 X137.272 Y83.108 E6.16808
G1 X137.506 Y83.109 E6.19019
G1 X138.434 Y83.214 E6.27845
G1 X138.646 Y83.251 E6.29878
G1 X139.42 Y83.427 E6.37379
G1 X140.172 Y83.679 E6.44874
G1 X140.663 Y83.892 E6.49932
G1 X141.195 Y84.144 E6.55495
G1 X141.894 Y84.519 E6.62991
G1 X142.552 Y84.963 E6.70492
G1 X143.162 Y85.471 E6.77994
G1 X143.3 Y85.612 E6.79858
G1 X143.651 Y85.767 E6.83484
G1 X144.382 Y86.186 E6.91446
G1 X144.577 Y86.312 E6.9364
G1 X145.221 Y86.775 E7.01136
G1 X145.815 Y87.301 E7.08634
G1 X146.144 Y87.644 E7.13125
G1 X146.522 Y88.062 E7.18451
G1 X147.024 Y88.677 E7.25953
G1 X147.461 Y89.339 E7.33449
G1 X147.83 Y90.041 E7.40943
G1 X147.898 Y90.211 E7.42674
G1 X148.278 Y90.621 E7.47956
G1 X148.756 Y91.255 E7.5546
G1 X149.168 Y91.933 E7.62957
G1 X149.352 Y92.296 E7.66803
G1 X149.598 Y92.814 E7.72222
G1 X149.901 Y93.547 E7.79717
G1 X150.13 Y94.307 E7.87218
G1 X150.264 Y94.971 E7.93619
G1 X150.307 Y95.245 E7.9624
G1 X150.39 Y96.034 E8.03738
G1 X150.391 Y96.23 E8.0559
G1 X150.57 Y96.703 E8.10369
G1 X150.775 Y97.469 E8.17863
G1 X150.902 Y98.252 E8.25359
G1 X150.939 Y98.703 E8.29635
G1 X150.97 Y99.291 E8.35199
G1 X150.972 Y100.085 E8.42702
G1 X150.86 Y101.08 E8.52165
G1 X150.829 Y101.255 E8.53844
G1 X150.652 Y102.028 E8.61338
G1 X150.397 Y102.78 E8.68842
G1 X150.395 Y102.783 E8.68876
G1 X150.371 Y103.353 E8.74267
G1 X150.258 Y104.138 E8.81762
G1 X149.951 Y105.256 E8.92718
G1 X149.754 Y105.811 E8.98283
G1 X149.452 Y106.545 E9.05784
G1 X149.077 Y107.244 E9.1328
G1 X148.582 Y107.97 E9.21584
G1 X148.424 Y108.176 E9.24037
G1 X147.91 Y108.78 E9.31532
G1 X147.892 Y108.797 E9.31766
G1 X147.768 Y109.089 E9.34764
G1 X147.387 Y109.785 E9.42262
G1 X146.937 Y110.439 E9.49764
G1 X146.514 Y110.947 E9.56011
G1 X146.466 Y111 E9.56687
G1 X146.522 Y111.062 E9.57476
G1 X147.024 Y111.677 E9.64978
G1 X147.461 Y112.339 E9.72474
G1 X147.83 Y113.041 E9.79969
G1 X147.898 Y113.211 E9.81699
G1 X148.278 Y113.621 E9.86982
G1 X148.756 Y114.255 E9.94485
G1 X149.168 Y114.933 E10.01982
G1 X149.355 Y115.302 E10.05892
G1 X149.608 Y115.836 E10.11476
G1 X149.911 Y116.57 E10.1898
G1 X150.139 Y117.33 E10.26478
G1 X150.29 Y118.12 E10.34079
G1 X150.326 Y118.378 E10.3654
G1 X150.396 Y119.168 E10.44035
G1 X150.395 Y119.237 E10.44687
G1 X150.484 Y119.45 E10.46869
G1 X150.715 Y120.209 E10.54366
G1 X150.868 Y120.988 E10.61868
G1 X150.938 Y121.693 E10.68563
G1 X150.969 Y122.265 E10.73977
G1 X150.972 Y123.058 E10.8147
G1 X150.878 Y123.959 E10.90031
G1 X150.847 Y124.149 E10.9185
G1 X150.68 Y124.925 E10.99351
G1 X150.436 Y125.68 E11.0685
G1 X150.399 Y125.765 E11.07726
G1 X150.36 Y126.459 E11.14294
G1 X150.237 Y127.243 E11.21794
G1 X149.954 Y128.251 E11.31688
G1 X149.765 Y128.786 E11.3705
G1 X149.464 Y129.52 E11.44546
G1 X149.09 Y130.22 E11.52046
G1 X148.654 Y130.87 E11.59443
G1 X148.49 Y131.09 E11.62036
G1 X147.984 Y131.701 E11.69533
G1 X147.896 Y131.788 E11.70702
G1 X147.768 Y132.089 E11.73793
G1 X147.387 Y132.785 E11.81291
G1 X146.937 Y133.439 E11.88793
G1 X146.522 Y133.938 E11.94926
G1 X146.144 Y134.356 E12.00252
G1 X145.583 Y134.917 E12.0775
G1 X144.873 Y135.488 E12.1636
G1 X144.713 Y135.602 E12.18216
G1 X144.044 Y136.029 E12.25716
G1 X143.336 Y136.387 E12.33214
G1 X143.274 Y136.411 E12.33842
G1 X142.585 Y136.992 E12.42359
G1 X142.366 Y137.155 E12.44939
G1 X141.706 Y137.596 E12.5244
G1 X141.006 Y137.969 E12.59935
G1 X140.413 Y138.218 E12.66013
G1 X139.919 Y138.402 E12.70995
G1 X139.162 Y138.641 E12.78496
G1 X138.385 Y138.803 E12.85997
G1 X137.338 Y138.895 E12.95929
G1 X137.226 Y138.897 E12.96988
G1 X136.347 Y139.185 E13.05729
G1 X136.084 Y139.25 E13.08289
G1 X135.306 Y139.401 E13.15778
G1 X134.515 Y139.473 E13.23284
G1 X134.098 Y139.479 E13.27225
G1 X133.612 Y139.473 E13.31818
G1 X132.82 Y139.424 E13.39317
G1 X132.037 Y139.294 E13.46818
G1 X131.201 Y139.064 E13.55011
G1 X131.073 Y139.021 E13.56287
G1 X130.753 Y138.895 E13.59537
G1 X130.223 Y138.878 E13.64548
G1 X129.436 Y138.772 E13.72053
G1 X128.664 Y138.588 E13.79553
G1 X128.232 Y138.447 E13.83847
G1 X127.677 Y138.249 E13.89415
G1 X126.944 Y137.945 E13.96914
G1 X126.245 Y137.569 E14.04415
G1 X125.78 Y137.265 E14.09665
G1 X125.603 Y137.14 E14.11713
G1 X124.979 Y136.65 E14.1921
G1 X124.715 Y136.396 E14.22672
G1 X124.517 Y136.317 E14.24687
G1 X123.814 Y135.949 E14.32185
G1 X123.181 Y135.531 E14.39354
G1 X122.776 Y135.935 E14.4476
G1 X122.047 Y136.517 E14.53575
G1 X121.904 Y136.618 E14.55229
G1 X121.234 Y137.043 E14.62727
G1 X120.524 Y137.398 E14.70228
G1 X120.47 Y137.418 E14.70773
G1 X120.065 Y137.795 E14.76001
G1 X119.433 Y138.275 E14.83501
G1 X118.756 Y138.688 E14.90995
G1 X118.251 Y138.939 E14.96324
G1 X117.775 Y139.155 E15.01264
G1 X117.037 Y139.446 E15.08761
G1 X116.273 Y139.662 E15.16264
G1 X115.658 Y139.776 E15.22174
G1 X115.377 Y139.817 E15.24858
G1 X114.587 Y139.892 E15.32357
G1 X114.466 Y139.891 E15.335
G1 X113.673 Y140.156 E15.41402
G1 X113.426 Y140.221 E15.43815
G1 X112.65 Y140.384 E15.51309
G1 X111.861 Y140.468 E15.58807
G1 X111.328 Y140.479 E15.63845
G1 X110.827 Y140.473 E15.68579
G1 X110.035 Y140.424 E15.76078
G1 X109.252 Y140.295 E15.83577
G1 X108.413 Y140.064 E15.91801
G1 X108.285 Y140.021 E15.93077
G1 X107.965 Y139.895 E15.96327
G1 X107.435 Y139.878 E16.01338
G1 X106.648 Y139.772 E16.08842
G1 X105.876 Y139.588 E16.16342
G1 X105.444 Y139.447 E16.20636
G1 X104.889 Y139.249 E16.26205
G1 X104.156 Y138.945 E16.33704
G1 X103.457 Y138.569 E16.41204
G1 X102.992 Y138.265 E16.46454
G1 X102.815 Y138.14 E16.48502
G1 X102.191 Y137.65 E16.56
G1 X101.927 Y137.396 E16.59462
G1 X101.729 Y137.317 E16.61476
G1 X101.026 Y136.949 E16.68975
G1 X100.364 Y136.512 E16.76471
G1 X100.107 Y136.299 E16.79625
G1 X99.814 Y136.532 E16.83163
G1 X99.67 Y136.633 E16.84825
G1 X98.998 Y137.056 E16.92329
G1 X98.287 Y137.408 E16.99826
G1 X98.268 Y137.415 E17.00017
G1 X97.585 Y137.992 E17.08466
G1 X97.366 Y138.155 E17.11046
G1 X96.706 Y138.596 E17.18548
G1 X96.006 Y138.969 E17.26043
G1 X95.413 Y139.218 E17.32121
G1 X94.919 Y139.402 E17.37102
G1 X94.162 Y139.641 E17.44604
G1 X93.385 Y139.803 E17.52105
G1 X92.459 Y139.892 E17.60896
G1 X92.323 Y139.897 E17.62182
G1 X92.241 Y139.896 E17.62957
G1 X91.461 Y140.156 E17.70727
G1 X91.214 Y140.221 E17.7314
G1 X90.438 Y140.384 E17.80633
G1 X89.649 Y140.468 E17.88132
G1 X89.116 Y140.479 E17.93169
G1 X88.615 Y140.473 E17.97904
G1 X87.823 Y140.424 E18.05403
G1 X87.04 Y140.295 E18.12902
G1 X86.201 Y140.064 E18.21126
G1 X86.073 Y140.021 E18.22402
G1 X85.753 Y139.895 E18.25652
G1 X85.223 Y139.878 E18.30663
G1 X84.436 Y139.772 E18.38167
G1 X83.664 Y139.588 E18.45667
G1 X83.248 Y139.453 E18.498
G1 X82.706 Y139.261 E18.55234
G1 X81.973 Y138.959 E18.62725
G1 X81.273 Y138.584 E18.7023
G1 X80.889 Y138.337 E18.74544
G1 X80.699 Y138.207 E18.7672
G1 X80.068 Y137.727 E18.84212
G1 X79.713 Y137.396 E18.88799
G1 X79.517 Y137.317 E18.90796
G1 X78.814 Y136.949 E18.98294
G1 X78.152 Y136.512 E19.0579
G1 X77.435 Y135.916 E19.14601
G1 X77.033 Y135.54 E19.19803
G1 X76.481 Y134.97 E19.27301
G1 X75.99 Y134.347 E19.34797
G1 X75.569 Y133.686 E19.42203
G1 X75.442 Y133.463 E19.44628
G1 X75.099 Y132.785 E19.51809
G1 X74.773 Y132.44 E19.56294
G1 X74.289 Y131.812 E19.63787
G1 X73.87 Y131.138 E19.71286
G1 X73.644 Y130.697 E19.75969
G1 X73.398 Y130.178 E19.81397
G1 X73.095 Y129.445 E19.88892
G1 X72.867 Y128.685 E19.9639
G1 X72.822 Y128.502 E19.98171
G1 X72.671 Y127.723 E20.0567
G1 X72.6 Y126.933 E20.13165
G1 X72.602 Y126.751 E20.14885
G1 X72.43 Y126.297 E20.19473
G1 X72.225 Y125.531 E20.26967
G1 X72.098 Y124.748 E20.34463
G1 X72.061 Y124.29 E20.38805
G1 X72.03 Y123.693 E20.44454
G1 X72.028 Y122.9 E20.51948
G1 X72.107 Y122.11 E20.59451
G1 X72.231 Y121.471 E20.65602
G1 X72.28 Y121.264 E20.67612
G1 X72.501 Y120.502 E20.7511
G1 X72.608 Y120.237 E20.77811
G1 X72.614 Y119.885 E20.81137
G1 X72.717 Y119.043 E20.89154
G1 X72.755 Y118.829 E20.91208
G1 X72.933 Y118.056 E20.98704
G1 X73.188 Y117.304 E21.06207
G1 X73.386 Y116.847 E21.10914
G1 X73.635 Y116.319 E21.16431
G1 X74.009 Y115.619 E21.23931
G1 X74.452 Y114.961 E21.31427
G1 X74.959 Y114.35 E21.3893
G1 X75.114 Y114.197 E21.40988
G1 X75.201 Y113.983 E21.43171
G1 X75.572 Y113.282 E21.50666
G1 X76.011 Y112.622 E21.58156
G1 X76.52 Y112.011 E21.65671
G1 X76.497 Y111.987 E21.65986
G1 X76.005 Y111.364 E21.73487
G1 X75.632 Y110.788 E21.79972
G1 X75.494 Y110.553 E21.82548
G1 X75.127 Y109.849 E21.9005
G1 X75.103 Y109.789 E21.90661
G1 X74.71 Y109.364 E21.96131
G1 X74.233 Y108.73 E22.03629
G1 X73.822 Y108.051 E22.11129
G1 X73.638 Y107.685 E22.15
G1 X73.395 Y107.171 E22.20373
G1 X73.092 Y106.437 E22.27877
G1 X72.867 Y105.685 E22.35295
G1 X72.822 Y105.502 E22.37076
G1 X72.671 Y104.723 E22.44574
G1 X72.6 Y103.933 E22.5207
G1 X72.602 Y103.751 E22.5379
G1 X72.43 Y103.297 E22.58378
G1 X72.225 Y102.531 E22.65871
G1 X72.098 Y101.748 E22.73367
G1 X72.061 Y101.29 E22.77709
G1 X72.03 Y100.693 E22.83359
G1 X72.028 Y99.9 E22.90852
G1 X72.107 Y99.11 E22.98355
G1 X72.231 Y98.471 E23.04506
G1 X72.28 Y98.264 E23.06517
G1 X72.501 Y97.502 E23.14014
G1 X72.608 Y97.237 E23.16715
G1 X72.614 Y96.885 E23.20042
G1 X72.717 Y96.043 E23.28058
G1 X72.755 Y95.829 E23.30112
G1 X72.933 Y95.056 E23.37608
G1 X73.188 Y94.304 E23.45112
G1 X73.386 Y93.847 E23.49818
G1 X73.635 Y93.319 E23.55335
G1 X74.009 Y92.619 E23.62835
G1 X74.452 Y91.961 E23.70331
G1 X74.959 Y91.35 E23.77834
G1 X75.114 Y91.198 E23.79885
G1 X75.201 Y90.983 E23.82077
G1 X75.572 Y90.282 E23.89572
G1 X76.011 Y89.622 E23.97063
G1 X76.58 Y88.939 E24.05464
G1 X76.942 Y88.551 E24.10478
G1 X77.512 Y87.999 E24.17977
G0 F4320 X77.756 Y88.25
G1 F1800 X78.366 Y87.772 E24.253
G1 X78.82 Y87.475 E24.30427
G1 X79.051 Y87.336 E24.32975
G1 X79.736 Y86.971 E24.40309
G1 X79.922 Y86.895 E24.42208
G1 X80.163 Y86.661 E24.45383
G1 X80.561 Y86.335 E24.50244
G1 X80.759 Y86.184 E24.52597
G1 X81.399 Y85.747 E24.59921
G1 X82.081 Y85.377 E24.67253
G1 X82.788 Y85.083 E24.74489
G1 X83.336 Y84.887 E24.79989
G1 X84.079 Y84.663 E24.87322
G1 X84.84 Y84.518 E24.94643
G1 X85.613 Y84.451 E25.01975
G1 X85.862 Y84.455 E25.04329
G1 X85.932 Y84.426 E25.05045
G1 X86.256 Y84.31 E25.08297
G1 X86.998 Y84.087 E25.15619
G1 X87.76 Y83.941 E25.2295
G1 X88.533 Y83.874 E25.30283
G1 X89.152 Y83.879 E25.36132
G1 X89.736 Y83.907 E25.41658
G1 X90.508 Y83.984 E25.48989
G1 X91.268 Y84.14 E25.56321
G1 X92.008 Y84.373 E25.63652
G1 X92.206 Y84.459 E25.65692
G1 X92.572 Y84.464 E25.69151
G1 X93.449 Y84.574 E25.77504
G1 X93.676 Y84.616 E25.79685
G1 X94.43 Y84.796 E25.87011
G1 X95.162 Y85.053 E25.94342
G1 X95.528 Y85.214 E25.98121
G1 X96.039 Y85.456 E26.03464
G1 X96.722 Y85.824 E26.10796
G1 X97.363 Y86.26 E26.18121
G1 X97.956 Y86.76 E26.25451
G1 X98.093 Y86.902 E26.27316
G1 X98.556 Y87.111 E26.32117
G1 X99.106 Y87.425 E26.38101
G1 X99.291 Y87.541 E26.40165
G1 X99.926 Y87.986 E26.47493
G1 X100.104 Y88.141 E26.49723
G1 X100.595 Y87.756 E26.55619
G1 X101.152 Y87.4 E26.61866
G1 X101.373 Y87.272 E26.6428
G1 X102.063 Y86.919 E26.71604
G1 X102.133 Y86.892 E26.72313
G1 X102.253 Y86.77 E26.7393
G1 X102.836 Y86.289 E26.81072
G1 X103.055 Y86.126 E26.83652
G1 X103.7 Y85.695 E26.90983
G1 X104.386 Y85.333 E26.98313
G1 X105.03 Y85.071 E27.04883
G1 X105.565 Y84.881 E27.10248
G1 X106.308 Y84.659 E27.17576
G1 X107.07 Y84.515 E27.24905
G1 X107.843 Y84.451 E27.32235
G1 X108.074 Y84.455 E27.34418
G1 X108.144 Y84.426 E27.35134
G1 X108.468 Y84.31 E27.38386
G1 X109.21 Y84.087 E27.45708
G1 X109.972 Y83.941 E27.5304
G1 X110.745 Y83.874 E27.60372
G1 X111.364 Y83.879 E27.66222
G1 X111.948 Y83.907 E27.71747
G1 X112.72 Y83.984 E27.79078
G1 X113.48 Y84.14 E27.8641
G1 X114.22 Y84.373 E27.93742
G1 X114.418 Y84.459 E27.95781
G1 X114.784 Y84.464 E27.99241
G1 X115.661 Y84.574 E28.07593
G1 X115.888 Y84.616 E28.09775
G1 X116.642 Y84.796 E28.171
G1 X117.374 Y85.053 E28.24432
G1 X117.74 Y85.214 E28.2821
G1 X118.251 Y85.456 E28.33553
G1 X118.934 Y85.824 E28.40885
G1 X119.575 Y86.26 E28.48211
G1 X120.168 Y86.76 E28.55541
G1 X120.306 Y86.903 E28.57419
G1 X120.766 Y87.111 E28.62189
G1 X121.318 Y87.425 E28.68191
G1 X121.503 Y87.541 E28.70254
G1 X122.064 Y87.934 E28.76727
G1 X122.214 Y87.773 E28.78807
G1 X122.772 Y87.235 E28.86131
G1 X123.383 Y86.756 E28.93468
G1 X123.927 Y86.408 E28.99571
G1 X124.147 Y86.28 E29.01976
G1 X124.836 Y85.925 E29.09301
G1 X124.928 Y85.889 E29.10234
G1 X125.163 Y85.661 E29.13328
G1 X125.561 Y85.335 E29.1819
G1 X125.759 Y85.184 E29.20543
G1 X126.399 Y84.747 E29.27867
G1 X127.081 Y84.377 E29.35199
G1 X127.788 Y84.083 E29.42435
G1 X128.336 Y83.887 E29.47935
G1 X129.079 Y83.663 E29.55268
G1 X129.84 Y83.518 E29.62589
G1 X130.613 Y83.451 E29.69921
G1 X130.862 Y83.455 E29.72275
G1 X130.932 Y83.426 E29.72991
